svg/blinds_horizontal.svg

<svg xmlns="http://www.w3.org/2000/svg" viewBox="0 0 24 24"><path d="M20 19V3H4v16H2v2h20v-2zM16 9h2v2h-2zm-2 2H6V9h8zm4-4h-2V5h2zm-4-2v2H6V5zM6 19v-6h8v1.82A1.746 1.746 0 0 0 15 18a1.746 1.746 0 0 0 1-3.18V13h2v6z"/></svg>

<svg xmlns="http://www.w3.org/2000/svg" id="mdi-blinds-horizontal" viewBox="0 0 24 24"><path d="M20 19V3H4V19H2V21H22V19H20M16 9H18V11H16V9M14 11H6V9H14V11M18 7H16V5H18V7M14 5V7H6V5H14M6 19V13H14V14.82C13.55 15.14 13.25 15.66 13.25 16.25C13.25 17.22 14.03 18 15 18S16.75 17.22 16.75 16.25C16.75 15.66 16.45 15.13 16 14.82V13H18V19H6Z" /></svg>
